flaticon/seo-and-analytics/browser-11.svg

<svg xmlns="http://www.w3.org/2000/svg" width="32" height="32" viewBox="0 0 24 24">
    <path d="M2.800781 1.199219C1.921875 1.199219 1.199219 1.921875 1.199219 2.800781 1.199219 3.679688 1.921875 4.398438 2.800781 4.398438 3.679688 4.398438 4.398438 3.679688 4.398438 2.800781 4.398438 1.921875 3.679688 1.199219 2.800781 1.199219zM2.800781 3.601562C2.359375 3.601562 2 3.238281 2 2.800781 2 2.359375 2.359375 2 2.800781 2 3.238281 2 3.601562 2.359375 3.601562 2.800781 3.601562 3.238281 3.238281 3.601562 2.800781 3.601562zM6.398438 1.199219C5.519531 1.199219 4.800781 1.921875 4.800781 2.800781 4.800781 3.679688 5.519531 4.398438 6.398438 4.398438 7.28125 4.398438 8 3.679688 8 2.800781 8 1.921875 7.28125 1.199219 6.398438 1.199219zM6.398438 3.601562C5.960938 3.601562 5.601562 3.238281 5.601562 2.800781 5.601562 2.359375 5.960938 2 6.398438 2 6.839844 2 7.199219 2.359375 7.199219 2.800781 7.199219 3.238281 6.839844 3.601562 6.398438 3.601562zM10 1.199219C9.121094 1.199219 8.398438 1.921875 8.398438 2.800781 8.398438 3.679688 9.121094 4.398438 10 4.398438 10.878906 4.398438 11.601562 3.679688 11.601562 2.800781 11.601562 1.921875 10.878906 1.199219 10 1.199219zM10 3.601562C9.558594 3.601562 9.199219 3.238281 9.199219 2.800781 9.199219 2.359375 9.558594 2 10 2 10.441406 2 10.800781 2.359375 10.800781 2.800781 10.800781 3.238281 10.441406 3.601562 10 3.601562zM10 3.601562"/>
    <path d="M 22.878906 0 L 1.160156 0 C 0.519531 0 0 0.519531 0 1.160156 L 0 22.71875 C 0 23.441406 0.558594 24 1.28125 24 L 22.71875 24 C 23.441406 24 24 23.441406 24 22.71875 L 24 1.160156 C 24 0.519531 23.480469 0 22.878906 0 Z M 23.199219 22.71875 C 23.199219 23 23 23.199219 22.71875 23.199219 L 1.28125 23.199219 C 1 23.199219 0.800781 23 0.800781 22.71875 L 0.800781 5.601562 L 23.199219 5.601562 Z M 0.800781 4.800781 L 0.800781 1.160156 C 0.800781 0.960938 0.960938 0.800781 1.160156 0.800781 L 22.839844 0.800781 C 23.039062 0.800781 23.199219 0.960938 23.199219 1.160156 L 23.199219 4.800781 Z M 0.800781 4.800781"/>
    <path d="M 4.800781 21.601562 C 6.121094 21.601562 7.199219 20.519531 7.199219 19.199219 C 7.199219 18.015625 6.332031 17.027344 5.199219 16.835938 L 5.199219 14.398438 L 11.601562 14.398438 L 11.601562 16.835938 C 10.46875 17.027344 9.601562 18.015625 9.601562 19.199219 C 9.601562 20.519531 10.679688 21.601562 12 21.601562 C 13.320312 21.601562 14.398438 20.519531 14.398438 19.199219 C 14.398438 18.015625 13.53125 17.027344 12.398438 16.835938 L 12.398438 14.398438 L 18.800781 14.398438 L 18.800781 16.835938 C 17.667969 17.027344 16.800781 18.015625 16.800781 19.199219 C 16.800781 20.519531 17.878906 21.601562 19.199219 21.601562 C 20.519531 21.601562 21.601562 20.519531 21.601562 19.199219 C 21.601562 18.015625 20.730469 17.027344 19.601562 16.835938 L 19.601562 13.601562 L 12.398438 13.601562 L 12.398438 11.964844 C 13.53125 11.773438 14.398438 10.785156 14.398438 9.601562 C 14.398438 8.28125 13.320312 7.199219 12 7.199219 C 10.679688 7.199219 9.601562 8.28125 9.601562 9.601562 C 9.601562 10.785156 10.46875 11.773438 11.601562 11.964844 L 11.601562 13.601562 L 4.398438 13.601562 L 4.398438 16.835938 C 3.269531 17.027344 2.398438 18.015625 2.398438 19.199219 C 2.398438 20.519531 3.480469 21.601562 4.800781 21.601562 Z M 13.601562 19.199219 C 13.601562 20.078125 12.878906 20.800781 12 20.800781 C 11.121094 20.800781 10.398438 20.078125 10.398438 19.199219 C 10.398438 18.320312 11.121094 17.601562 12 17.601562 C 12.878906 17.601562 13.601562 18.320312 13.601562 19.199219 Z M 20.800781 19.199219 C 20.800781 20.078125 20.078125 20.800781 19.199219 20.800781 C 18.320312 20.800781 17.601562 20.078125 17.601562 19.199219 C 17.601562 18.320312 18.320312 17.601562 19.199219 17.601562 C 20.078125 17.601562 20.800781 18.320312 20.800781 19.199219 Z M 10.398438 9.601562 C 10.398438 8.71875 11.121094 8 12 8 C 12.878906 8 13.601562 8.71875 13.601562 9.601562 C 13.601562 10.480469 12.878906 11.199219 12 11.199219 C 11.121094 11.199219 10.398438 10.480469 10.398438 9.601562 Z M 4.800781 17.601562 C 5.679688 17.601562 6.398438 18.320312 6.398438 19.199219 C 6.398438 20.078125 5.679688 20.800781 4.800781 20.800781 C 3.921875 20.800781 3.199219 20.078125 3.199219 19.199219 C 3.199219 18.320312 3.921875 17.601562 4.800781 17.601562 Z M 4.800781 17.601562"/>
</svg>

<svg xmlns="http://www.w3.org/2000/svg" width="32" height="32" viewBox="0 0 24 24">
    <path d="M2.8 1.2c-.878 0-1.6.722-1.6 1.6 0 .88.722 1.598 1.6 1.598.88 0 1.598-.718 1.598-1.597 0-.88-.718-1.602-1.597-1.602zm0 2.402A.804.804 0 0 1 2 2.8C2 2.359 2.36 2 2.8 2c.438 0 .802.36.802.8 0 .438-.364.802-.801.802zm0 0M6.398 1.2c-.878 0-1.597.722-1.597 1.6 0 .88.719 1.598 1.597 1.598C7.281 4.398 8 3.68 8 2.801c0-.88-.719-1.602-1.602-1.602zm0 2.402a.801.801 0 0 1 0-1.602c.442 0 .801.36.801.8 0 .438-.36.802-.8.802zm0 0M10 1.2c-.879 0-1.602.722-1.602 1.6 0 .88.723 1.598 1.602 1.598.879 0 1.602-.718 1.602-1.597 0-.88-.723-1.602-1.602-1.602zm0 2.402a.804.804 0 0 1-.8-.801.802.802 0 0 1 1.6 0c0 .437-.359.8-.8.8zm0 0"/>
    <path d="M22.879 0H1.16C.52 0 0 .52 0 1.16V22.72C0 23.44.559 24 1.281 24H22.72C23.44 24 24 23.441 24 22.719V1.16C24 .52 23.48 0 22.879 0zm.32 22.719c0 .281-.199.48-.48.48H1.28c-.281 0-.48-.199-.48-.48V5.602h22.398zM.801 4.8V1.16C.8.96.96.8 1.16.8H22.84c.2 0 .36.16.36.36V4.8zm0 0"/>
    <path d="M4.8 21.602a2.407 2.407 0 0 0 2.4-2.403 2.404 2.404 0 0 0-2-2.363v-2.438h6.402v2.438c-1.133.191-2 1.18-2 2.363A2.407 2.407 0 0 0 12 21.602a2.407 2.407 0 0 0 2.398-2.403 2.404 2.404 0 0 0-2-2.363v-2.438h6.403v2.438c-1.133.191-2 1.18-2 2.363a2.407 2.407 0 0 0 2.398 2.403 2.41 2.41 0 0 0 2.403-2.403 2.408 2.408 0 0 0-2-2.363v-3.234h-7.204v-1.637c1.133-.192 2-1.18 2-2.363A2.407 2.407 0 0 0 12 7.199a2.407 2.407 0 0 0-2.398 2.403c0 1.183.867 2.171 2 2.363v1.637H4.398v3.234c-1.128.191-2 1.18-2 2.363a2.41 2.41 0 0 0 2.403 2.403zm8.802-2.403c0 .88-.723 1.602-1.602 1.602a1.609 1.609 0 0 1-1.602-1.602c0-.879.723-1.597 1.602-1.597.879 0 1.602.718 1.602 1.597zm7.199 0c0 .88-.723 1.602-1.602 1.602a1.605 1.605 0 0 1-1.597-1.602c0-.879.718-1.597 1.597-1.597.88 0 1.602.718 1.602 1.597zM10.398 9.602C10.398 8.719 11.121 8 12 8c.879 0 1.602.719 1.602 1.602 0 .878-.723 1.597-1.602 1.597a1.605 1.605 0 0 1-1.602-1.597zm-5.597 8c.879 0 1.597.718 1.597 1.597 0 .88-.718 1.602-1.597 1.602a1.609 1.609 0 0 1-1.602-1.602c0-.879.723-1.597 1.602-1.597zm0 0"/>
</svg>
